X:1
T:Love Bridge Waltz
C:Eddit LeJeane
M:3/4
L:1/4
K:D
|:"D"A F3/2 G/2|A2-A/2 F/2|"G"B G3/2 A/2|B3
|"D"A F3/2 G/2|A3/2 F/2 E/2D/2|"A"A A/2F/2 E/2F/2|"D"D3:||
|:"D"F F3/2 A/2|E/2D/2-D3/2 D/2|"A"E E3/2 D/2|"D"F/2E/2 D2
|F F3/2 A/2|E/2D/2-D3/2 D/2|"A""^rit"E E3/2 D/2|"D"F/2D/2-D2:||
